flaticon/game/king.svg

<svg xmlns="http://www.w3.org/2000/svg" width="32" height="32" viewBox="0 0 24 24">
    <path d="M 17.601562 21.199219 L 17.601562 20.460938 C 17.601562 19.554688 16.867188 18.816406 15.964844 18.804688 L 15.847656 17.601562 L 15.582031 14.800781 L 15.238281 11.199219 L 16 11.199219 C 16.773438 11.199219 17.398438 10.570312 17.398438 9.800781 C 17.398438 9.027344 16.773438 8.398438 16 8.398438 L 14.898438 8.398438 L 15.429688 6.011719 C 15.496094 5.714844 15.425781 5.410156 15.234375 5.171875 C 15.042969 4.9375 14.761719 4.800781 14.457031 4.800781 L 13.601562 4.800781 L 13.601562 4 L 13.851562 4 C 14.375 4 14.800781 3.574219 14.800781 3.050781 L 14.800781 2.148438 C 14.800781 1.625 14.375 1.199219 13.851562 1.199219 L 13.601562 1.199219 L 13.601562 0.949219 C 13.601562 0.425781 13.175781 0 12.652344 0 L 11.347656 0 C 10.824219 0 10.398438 0.425781 10.398438 0.949219 L 10.398438 1.199219 L 10.148438 1.199219 C 9.625 1.199219 9.199219 1.625 9.199219 2.148438 L 9.199219 3.050781 C 9.199219 3.574219 9.625 4 10.148438 4 L 10.398438 4 L 10.398438 4.800781 L 9.542969 4.800781 C 9.238281 4.800781 8.957031 4.9375 8.765625 5.171875 C 8.574219 5.410156 8.503906 5.714844 8.570312 6.011719 L 9.101562 8.398438 L 8 8.398438 C 7.226562 8.398438 6.601562 9.027344 6.601562 9.800781 C 6.601562 10.570312 7.226562 11.199219 8 11.199219 L 8.761719 11.199219 L 8.417969 14.800781 L 8.152344 17.601562 L 8.035156 18.804688 C 7.132812 18.816406 6.398438 19.554688 6.398438 20.460938 L 6.398438 21.199219 L 5.601562 21.199219 L 5.601562 24 L 18.398438 24 L 18.398438 21.199219 Z M 9.144531 15.601562 L 14.855469 15.601562 L 14.96875 16.800781 L 9.03125 16.800781 Z M 10.148438 3.199219 C 10.066406 3.199219 10 3.132812 10 3.050781 L 10 2.148438 C 10 2.066406 10.066406 2 10.148438 2 L 11.199219 2 L 11.199219 0.949219 C 11.199219 0.867188 11.265625 0.800781 11.347656 0.800781 L 12.652344 0.800781 C 12.734375 0.800781 12.800781 0.867188 12.800781 0.949219 L 12.800781 2 L 13.851562 2 C 13.933594 2 14 2.066406 14 2.148438 L 14 3.050781 C 14 3.132812 13.933594 3.199219 13.851562 3.199219 L 12.800781 3.199219 L 12.800781 4.800781 L 11.199219 4.800781 L 11.199219 3.199219 Z M 9.351562 5.839844 C 9.335938 5.757812 9.367188 5.699219 9.390625 5.671875 C 9.410156 5.644531 9.460938 5.601562 9.542969 5.601562 L 14.457031 5.601562 C 14.539062 5.601562 14.589844 5.644531 14.609375 5.671875 C 14.632812 5.699219 14.664062 5.757812 14.648438 5.839844 L 14.078125 8.398438 L 9.921875 8.398438 Z M 8 10.398438 C 7.667969 10.398438 7.398438 10.128906 7.398438 9.800781 C 7.398438 9.46875 7.667969 9.199219 8 9.199219 L 16 9.199219 C 16.332031 9.199219 16.601562 9.46875 16.601562 9.800781 C 16.601562 10.128906 16.332031 10.398438 16 10.398438 Z M 9.5625 11.199219 L 14.4375 11.199219 L 14.777344 14.800781 L 9.222656 14.800781 Z M 15.046875 17.601562 L 15.160156 18.800781 L 8.839844 18.800781 L 8.953125 17.601562 Z M 7.199219 20.460938 C 7.199219 19.988281 7.585938 19.601562 8.0625 19.601562 L 15.9375 19.601562 C 16.414062 19.601562 16.800781 19.988281 16.800781 20.460938 L 16.800781 21.199219 L 7.199219 21.199219 Z M 17.601562 23.199219 L 6.398438 23.199219 L 6.398438 22 L 17.601562 22 Z M 17.601562 23.199219"/>
</svg>

<svg xmlns="http://www.w3.org/2000/svg" width="32" height="32" viewBox="0 0 24 24">
    <path d="M17.602 21.2v-.74a1.66 1.66 0 0 0-1.637-1.655l-.117-1.203-.266-2.801-.344-3.602H16a1.4 1.4 0 0 0 0-2.8h-1.102l.532-2.387a.987.987 0 0 0-.196-.84.999.999 0 0 0-.777-.371h-.855V4h.25a.95.95 0 0 0 .949-.95v-.902a.95.95 0 0 0-.95-.949h-.25V.95A.95.95 0 0 0 12.653 0h-1.304a.95.95 0 0 0-.95.95v.25h-.25a.95.95 0 0 0-.949.948v.903c0 .523.426.949.95.949h.25v.8h-.856a.999.999 0 0 0-.777.372.987.987 0 0 0-.196.84l.532 2.386H8A1.4 1.4 0 0 0 8 11.2h.762l-.344 3.602-.266 2.8-.117 1.204a1.66 1.66 0 0 0-1.637 1.656v.738h-.796V24h12.796v-2.8zm-8.457-5.598h5.71l.114 1.199H9.03zm1.003-12.403A.148.148 0 0 1 10 3.051v-.903c0-.082.066-.148.148-.148H11.2V.95c0-.083.067-.15.149-.15h1.304c.082 0 .149.067.149.15V2h1.05c.083 0 .149.066.149.148v.903a.148.148 0 0 1-.148.148H12.8v1.602h-1.602V3.199zm-.796 2.64a.2.2 0 0 1 .039-.167c.02-.027.07-.07.152-.07h4.914c.082 0 .133.043.152.07a.2.2 0 0 1 .04.168l-.57 2.558H9.921zM8 10.4a.601.601 0 0 1-.602-.598c0-.332.27-.602.602-.602h8a.601.601 0 0 1 0 1.2zm1.563.8h4.874l.34 3.602H9.223zm5.484 6.403l.113 1.199H8.84l.113-1.2zM7.199 20.46c0-.473.387-.86.864-.86h7.874c.477 0 .864.387.864.86v.738H7.199zm10.403 2.738H6.398V22h11.204zm0 0"/>
</svg>
